app/dist/common/images/forward-industries.svg

<svg height="18" width="18" xmlns="http://www.w3.org/2000/svg"><path d="m0 0h18v18h-18z" fill="#f0f3fa"/><path d="m7.5 12v-5.5h3.5v1h-2.5v1.5h2.5v1h-2.5v2z" fill="#2c3a47"/><path d="m5.5 12.4v-2.4l-1.5 4 9-1.6zm7-6.8v2.4l1.5-4-9 1.6z" fill="#a6b6c5"/></svg>

<!-- by TradingView --><svg xmlns="http://www.w3.org/2000/svg" width="18" height="18"><path fill="#F0F3FA" d="M0 0h18v18H0z"/><path d="M7.5 12V6.5H11v1H8.5V9H11v1H8.5v2h-1z" fill="#2C3A47"/><path d="M5.5 12.4V10L4 14l9-1.6H5.5zm7-6.8V8L14 4 5 5.6h7.5z" fill="#A6B6C5"/></svg>
